X:1
T:Desposastes os senyora
T:Anonymous
T:Source : Cancionero de Uppsala : Villancicos---Venetia---G.Scotto---1556. Editor : André Vierendeels (11/04/17) 
T:Desposastes os senyora
T:©
T:©
T:©
C:Anonymous
Z:©
%%score [ 1 2 3 ]
L:1/8
Q:1/4=120
M:2/2
K:C
V:1 treble-8 nm="Tenor 1" snm="T 1"
V:2 treble-8 nm="Tenor 2" snm="T 2"
V:3 bass nm="Bass" snm="B"
V:1
 z8 | z8 | z8 | A2 A2 e3 e | e2 e2 f4 | e8 | z2 e4 dc | d2 A2 c4 | B8 | A6 GF | G4 A4 | e3 f g4 | %12
w: |||Des- po- sas- tes|os de- nyo-|ra,|so- lo por|de- mi os-|qui-||* tar,|ca- sa- reys|
w: |||Que- sto bra- vo|co- ra- *|çon,|ya es- ta'en|tiem- po de|a-|man- * *|* sar,|ca- sa- reys|
 D2 F3 E E2- | E2 D2 E4 | z4 z2 E2- | E2 F2 G4- | G2 D2 F2 E2- | E2 DC D4 | E8- | E8 || z8 | %21
w: y ha- bre- is|_ pe- sar,|ca-|* sa- reys|_ y ha- bre-|* is _ pe-|sar.|_||
w: y ha- bre- is|_ pe- sar,|ca-|* sa- reys|_ y ha- nre-|* ts _ pe-|sar,|_||
 z4 B2 B2 | d3 d d2 d2 | e2 A3 Bcd | e2 f3 eed/c/ | d4 c4 | z2 e2 f2 g2- | g2 fe d2 d2 | e4 d3 c | %29
w: Pues que|tan mal gua- lar-|||* don,|a los mis|_ ser- * vi- cios|dis- * *|
w: Que pa-|gueys lo que he-|zis- tes, _ _ _|_ _ _ _ _ _||lo que no|_ lle- * * va|Ra- * *|
 B4 A4- | A8 |] %31
w: * tes.|_|
w: * zon.|_|
V:2
 E2 E2 B3 B | B2 B2 c4 | B6 c2 | d2 c4 BA | BG c4 B2 |"^#" c2 A4 GF | G2 E2 G4 | F4 E4 | z2 e4 dc | %9
w: Des- po- sas tes|se- nyo- *||||ra, so- lo por-|de- mi'os- qui|_ tar,|so- lo por-|
w: Vue- stro bra- no|co- ra- *||||çon, ya es- ta'en|tiem- po de'a-|man- dar,|ya es- ta'en|
 d2 A2 c4 | B4 A4 | z2 E3 F G2- | G2 D2 F2 G2 | A4 z2 B2- | Bc d2 A2 c2- | c2 B2 B4 | B3 c d2 G2 | %17
w: de- mi'os- qui-|* tar,|ca- sa- reys|_ y ha- bre-|is ca-|* sa- reys y ha-|* bre- is,|ca- sa- reys y|
w: tiepo de'a- man-|* dar,|ca- sa- reys|_ y ha- bre-|is, ca-|* sa- reys y ha-|* bre- is|ca- sa- eys y|
 A6 A2 | B2 c4 BA | B8 || z4 E2 E2 | G6 G2 | G4 A4 | c6 A2 | Bc d3 c c2- | c2 B2 c4- | c4 z2 B2 | %27
w: ha- bre-|is pe- * *|sar.|Pues que|tan mal|gua- lar-|||* * don,|_ a|
w: ha- bre-|is pe- * *|sar.|Que pa-|gueys lo|que he-|zis- *||* * tes,|_ lo|
 c2 d3 c BA | G2 c2 B2 A2- |"^#" A2 G2 A4- | A8 |] %31
w: los mis ser- vi- *|cios dis- * *|* * tes.|_|
w: que no lle- * *|va Ra- * *|* * zon.|_|
V:3
 z8 | z4 A,,2 A,,2 | E,3 E, E,2 E,2 | F,4 E,4- | E,2 D,C, D,4 | C,3 D, E,4- |"^#" E,4 z4 | %7
w: |Des- po-|sas- tes se- nyo-|||* * ra,|_|
w: |Vue- stro|bra- vo co- ra-|||* * çon,|_|
"^#" z2 A,4 G,F, | G,2 E,2 G,4 | F,4 E,4 | E,4 z2 A,,2- | A,,B,, C,3 D,E,F, | G,2 F,2 D,2 E,2 | %13
w: so- lo por|de- mi'os- qui-|* tar,|_ ca|_ sa- reys y ha- bre-|is pe- * *|
w: ya es- ta|en tiem- po|de'a- man-|sar sa-|* sa- reys y ha- bre-|is pe- * *|
 F,4 E,4 | B,,3 C, D,2 A,,2 | C,2 D,2 E,2 E,2- | E,F, G,2 D,2 E,2 | F,8 | E,8- | E,8 || %20
w: * sar,|ca- sa reys y|ha- bre- is, ca-|* sa- reys y'ha breis|pe-|sar.|_|
w: * sar,|ca- sa- reys y|ha- bre- is, ca-|* sa- reys y'ha breis|pe-|sar.|_|
 E,2 E,2 G,4 | C,3 D, E,F, G,2- | G,2 F,E, D,4 | C,2 F,4 F,2 | E,2 D,2 A,2 A,2 | G,4 C,4- | %26
w: Pues que tan|mal gua- lar- * don,||* a- los|mis ser- vi- cios|dis- tes,|
w: Que pa- gueys|lo que _ _ he-|* zis- * *|tes, lo que|no lle- * va|Ra- zon,|
 C,4 z4 | E,2 F,2 G,3 F, | E,D, C,2 D,4 | E,4 A,,4- | A,,8 |] %31
w: _|a- los mis ser-|vi- * cios dis-|* tes.|_|
w: _|lo que no lle-|va _ _ Ra-|* zon.|_|

